src/icons/webcam.svg

<svg xmlns="http://www.w3.org/2000/svg" width="512" height="512" viewBox="0 0 512 512">
    <path d="M425.9 249.6v-75.1c0-7.8-5.2-11.3-11.7-7.7-23.5 13.3-47 26.7-70.6 39.8-3.8 2.1-5.4 5-5.4 9.4.1 22.5.1 45.1 0 67.5 0 4 1.6 6.7 5.1 8.6 23.4 13.2 46.8 26.5 70.1 39.6 7.2 4 12.4 1.1 12.4-7.2.2-24.9.2-50 .1-74.9m-134.3-98.1c-37.6.1-159.3-.1-182.4.2-11.3.1-20.2 7.2-22.4 17.6-.9 3.6-.7 7.7-.7 11.5v142.1c0 14.8 9.5 24.4 24.2 24.5 30.5.1 61 0 91.5 0v.1H294c14.3 0 24-10 24-24.3V177.5c.1-16.9-9.4-26-26.4-26"/>
</svg>

<?xml version="1.0" encoding="UTF-8"?>
<svg width="512px" height="512px" viewBox="0 0 512 512" version="1.1" xmlns="http://www.w3.org/2000/svg" xmlns:xlink="http://www.w3.org/1999/xlink">
    <!-- Generator: Sketch 62 (91390) - https://sketch.com -->
    <title>webcam</title>
    <desc>Created with Sketch.</desc>
    <g id="webcam" stroke="none" stroke-width="1" fill="none" fill-rule="evenodd">
        <path d="M425.9,249.6 L425.9,174.5 C425.9,166.7 420.7,163.2 414.2,166.8 C390.7,180.1 367.2,193.5 343.6,206.6 C339.8,208.7 338.2,211.6 338.2,216 C338.3,238.5 338.3,261.1 338.2,283.5 C338.2,287.5 339.8,290.2 343.3,292.1 C366.7,305.3 390.1,318.6 413.4,331.7 C420.6,335.7 425.8,332.8 425.8,324.5 C426,299.6 426,274.5 425.9,249.6 M291.6,151.5 C254,151.6 132.3,151.4 109.2,151.7 C97.9,151.8 89,158.9 86.8,169.3 C85.9,172.9 86.1,177 86.1,180.8 L86.1,322.9 C86.1,337.7 95.6,347.3 110.3,347.4 C140.8,347.5 171.3,347.4 201.8,347.4 L201.8,347.5 L294,347.5 C308.3,347.5 318.000782,337.5 318.000782,323.2 L318.000782,177.5 C318.1,160.6 308.6,151.5 291.6,151.5" id="Shape" fill="#000000" fill-rule="nonzero"></path>
    </g>
</svg>
